dist/assets/img/icons/crown-l.svg

<svg width="21" height="49" viewBox="0 0 21 49" fill="none" xmlns="http://www.w3.org/2000/svg">
<path d="M5.97798 5.44854C4.3043 4.29482 3.62006 2.02103 4.20697 0L6.0401 1.26279C7.71378 2.41652 8.39802 4.68982 7.81111 6.71086L5.97798 5.44854Z" fill="url(#paint0_linear)"/>
<path d="M6.73404 13.0211L6.52569 13.088C6.17452 12.8348 5.85563 12.5365 5.58223 12.2003L3.78237 9.9891C5.86395 8.97242 8.46935 9.47839 9.96744 11.3178L11.4411 13.1269C9.93369 12.5645 8.28594 12.5227 6.73404 13.0211Z" fill="url(#paint1_linear)"/>
<path d="M7.57484 35.2327L9.50774 33.1311C10.9021 34.9402 10.842 37.5169 9.23335 39.2667L7.46968 41.1849C7.92748 39.5328 7.78906 37.7237 6.95271 36.0882C7.12683 35.7861 7.33127 35.4978 7.57484 35.2327Z" fill="url(#paint2_linear)"/>
<path d="M14.0847 36.1615L15.1593 33.5439C15.6542 32.3389 16.6036 31.3929 17.8327 30.8813C18.7492 30.4976 19.7411 30.3919 20.6978 30.5607L19.6228 33.1768C19.1278 34.3823 18.1785 35.3283 16.9494 35.8409C16.0328 36.2236 15.0434 36.3284 14.0847 36.1615Z" fill="url(#paint3_linear)"/>
<path d="M16.761 28.2958L16.8481 25.4814C16.8882 24.1849 17.4472 22.9805 18.4195 22.0918C19.1468 21.4289 20.0384 20.9993 21 20.8399L20.912 23.6557C20.8719 24.9522 20.3128 26.1562 19.34 27.0448C18.6142 27.7073 17.7226 28.1374 16.761 28.2958Z" fill="url(#paint4_linear)"/>
<path d="M3.91442 45.6087C5.14449 44.9548 6.5609 44.8111 7.8971 45.2018C8.94083 45.5044 9.84223 46.1047 10.5103 46.9237L7.76896 48.3785C6.53987 49.03 5.12248 49.1756 3.78627 48.7854C2.72152 48.4752 1.81327 47.8507 1.14175 47.0062L3.91442 45.6087Z" fill="url(#paint5_linear)"/>
<path d="M2.7827 39.1807L5.49325 37.7434C6.23863 40.0868 5.22181 42.7011 2.95192 43.906L0.222294 45.2826C-0.485914 42.9543 0.532868 40.3742 2.7827 39.1807Z" fill="url(#paint6_linear)"/>
<path d="M16.5024 20.0175L15.5922 17.344C14.8326 15.1181 15.8343 12.731 17.8567 11.6071L18.7683 14.2807C19.5254 16.5066 18.5238 18.8937 16.5024 20.0175Z" fill="url(#paint7_linear)"/>
<path d="M10.727 40.5598C11.6172 39.5925 12.8423 39.0177 14.1785 38.9437C15.1783 38.8845 16.1427 39.1168 16.9845 39.5934L15.0511 41.695C14.1604 42.6643 12.9348 43.2381 11.5996 43.3121C10.5989 43.3704 9.63389 43.1395 8.79363 42.6634L10.727 40.5598Z" fill="url(#paint8_linear)"/>
<path d="M11.2397 24.7122L11.0352 24.6335C10.9345 24.2195 10.888 23.7932 10.9012 23.364L10.9883 20.5497C11.9381 20.7645 12.8023 21.2439 13.4856 21.9471C14.4031 22.8922 14.8859 24.1256 14.8448 25.422L14.7729 27.7333C14.0163 26.407 12.8023 25.3163 11.2397 24.7122Z" fill="url(#paint9_linear)"/>
<path d="M13.2981 32.8249L12.4148 34.9759C12.1722 33.4774 11.4161 32.0487 10.1601 30.9632L9.99478 30.8205C10.0456 30.3989 10.1528 29.9821 10.3171 29.5842L11.3911 26.9686C13.3402 28.2058 14.1927 30.6465 13.2981 32.8249Z" fill="url(#paint10_linear)"/>
<path d="M9.25546 17.328L8.34427 14.6536C9.31659 14.5378 10.2943 14.7048 11.1859 15.1391C12.3798 15.7224 13.2694 16.722 13.6901 17.9526L14.435 20.1415C13.2171 19.1129 11.6848 18.5292 10.0488 18.4818L9.82965 18.4761C9.58902 18.1204 9.39485 17.7349 9.25546 17.328Z" fill="url(#paint11_linear)"/>
<path d="M13.3393 12.3252L11.5395 10.1145C10.0409 8.27316 10.1411 5.69779 11.6436 3.97313L13.4425 6.18242C14.2711 7.201 14.6413 8.47043 14.4853 9.7593C14.3698 10.7196 13.9703 11.6044 13.3393 12.3252Z" fill="url(#paint12_linear)"/>
<defs>
<linearGradient id="paint0_linear" x1="10.5" y1="0" x2="10.5" y2="49" gradientUnits="userSpaceOnUse">
<stop stop-color="#B5212E"/>
<stop offset="1" stop-color="#051223"/>
</linearGradient>
<linearGradient id="paint1_linear" x1="10.5" y1="0" x2="10.5" y2="49" gradientUnits="userSpaceOnUse">
<stop stop-color="#B5212E"/>
<stop offset="1" stop-color="#051223"/>
</linearGradient>
<linearGradient id="paint2_linear" x1="10.5" y1="0" x2="10.5" y2="49" gradientUnits="userSpaceOnUse">
<stop stop-color="#B5212E"/>
<stop offset="1" stop-color="#051223"/>
</linearGradient>
<linearGradient id="paint3_linear" x1="10.5" y1="0" x2="10.5" y2="49" gradientUnits="userSpaceOnUse">
<stop stop-color="#B5212E"/>
<stop offset="1" stop-color="#051223"/>
</linearGradient>
<linearGradient id="paint4_linear" x1="10.5" y1="0" x2="10.5" y2="49" gradientUnits="userSpaceOnUse">
<stop stop-color="#B5212E"/>
<stop offset="1" stop-color="#051223"/>
</linearGradient>
<linearGradient id="paint5_linear" x1="10.5" y1="0" x2="10.5" y2="49" gradientUnits="userSpaceOnUse">
<stop stop-color="#B5212E"/>
<stop offset="1" stop-color="#051223"/>
</linearGradient>
<linearGradient id="paint6_linear" x1="10.5" y1="0" x2="10.5" y2="49" gradientUnits="userSpaceOnUse">
<stop stop-color="#B5212E"/>
<stop offset="1" stop-color="#051223"/>
</linearGradient>
<linearGradient id="paint7_linear" x1="10.5" y1="0" x2="10.5" y2="49" gradientUnits="userSpaceOnUse">
<stop stop-color="#B5212E"/>
<stop offset="1" stop-color="#051223"/>
</linearGradient>
<linearGradient id="paint8_linear" x1="10.5" y1="0" x2="10.5" y2="49" gradientUnits="userSpaceOnUse">
<stop stop-color="#B5212E"/>
<stop offset="1" stop-color="#051223"/>
</linearGradient>
<linearGradient id="paint9_linear" x1="10.5" y1="0" x2="10.5" y2="49" gradientUnits="userSpaceOnUse">
<stop stop-color="#B5212E"/>
<stop offset="1" stop-color="#051223"/>
</linearGradient>
<linearGradient id="paint10_linear" x1="10.5" y1="0" x2="10.5" y2="49" gradientUnits="userSpaceOnUse">
<stop stop-color="#B5212E"/>
<stop offset="1" stop-color="#051223"/>
</linearGradient>
<linearGradient id="paint11_linear" x1="10.5" y1="0" x2="10.5" y2="49" gradientUnits="userSpaceOnUse">
<stop stop-color="#B5212E"/>
<stop offset="1" stop-color="#051223"/>
</linearGradient>
<linearGradient id="paint12_linear" x1="10.5" y1="0" x2="10.5" y2="49" gradientUnits="userSpaceOnUse">
<stop stop-color="#B5212E"/>
<stop offset="1" stop-color="#051223"/>
</linearGradient>
</defs>
</svg>

<svg width="21" height="49" fill="none" xmlns="http://www.w3.org/2000/svg"><path d="M5.978 5.449C4.304 4.295 3.62 2.02 4.207 0L6.04 1.263C7.714 2.417 8.398 4.69 7.811 6.71L5.978 5.449z" fill="url(#paint0_linear)"/><path d="M6.734 13.021l-.208.067a4.94 4.94 0 01-.944-.888l-1.8-2.21c2.082-1.018 4.687-.512 6.185 1.328l1.474 1.809a7.16 7.16 0 00-4.707-.106z" fill="url(#paint1_linear)"/><path d="M7.575 35.233l1.933-2.102a4.75 4.75 0 01-.275 6.136L7.47 41.185a7.025 7.025 0 00-.517-5.097 4.8 4.8 0 01.622-.855z" fill="url(#paint2_linear)"/><path d="M14.085 36.161l1.074-2.617a4.89 4.89 0 012.674-2.663 5.109 5.109 0 012.865-.32l-1.075 2.616a4.895 4.895 0 01-2.674 2.664 5.131 5.131 0 01-2.864.32z" fill="url(#paint3_linear)"/><path d="M16.761 28.296l.087-2.815c.04-1.296.6-2.5 1.572-3.39A5.042 5.042 0 0121 20.84l-.088 2.816c-.04 1.296-.6 2.5-1.572 3.389a5.026 5.026 0 01-2.579 1.25z" fill="url(#paint4_linear)"/><path d="M3.914 45.609a5.285 5.285 0 013.983-.407 5.237 5.237 0 012.613 1.722l-2.74 1.455a5.298 5.298 0 01-3.983.406 5.233 5.233 0 01-2.644-1.779l2.772-1.397z" fill="url(#paint5_linear)"/><path d="M2.783 39.18l2.71-1.437a5.201 5.201 0 01-2.541 6.163l-2.73 1.377a5.203 5.203 0 012.56-6.102z" fill="url(#paint6_linear)"/><path d="M16.502 20.017l-.91-2.673c-.76-2.226.242-4.613 2.265-5.737l.911 2.674c.757 2.226-.244 4.613-2.266 5.736z" fill="url(#paint7_linear)"/><path d="M10.727 40.56a5.038 5.038 0 013.451-1.616c1-.06 1.965.173 2.806.65l-1.933 2.101a5.033 5.033 0 01-3.451 1.617 5.07 5.07 0 01-2.806-.649l1.933-2.103z" fill="url(#paint8_linear)"/><path d="M11.24 24.712l-.205-.078a4.75 4.75 0 01-.134-1.27l.087-2.814a5.01 5.01 0 012.498 1.397 4.738 4.738 0 011.359 3.475l-.072 2.311a6.913 6.913 0 00-3.533-3.02z" fill="url(#paint9_linear)"/><path d="M13.298 32.825l-.883 2.15a6.704 6.704 0 00-2.255-4.012l-.165-.143a4.72 4.72 0 01.322-1.236l1.074-2.615c1.95 1.237 2.802 3.677 1.907 5.856z" fill="url(#paint10_linear)"/><path d="M9.255 17.328l-.91-2.674a5.088 5.088 0 012.84.485 4.88 4.88 0 012.505 2.814l.745 2.189a7.079 7.079 0 00-4.386-1.66l-.22-.006a4.863 4.863 0 01-.574-1.148z" fill="url(#paint11_linear)"/><path d="M13.34 12.325l-1.8-2.21a4.751 4.751 0 01.104-6.142l1.799 2.21a4.724 4.724 0 011.042 3.576 4.738 4.738 0 01-1.146 2.566z" fill="url(#paint12_linear)"/><defs><linearGradient id="paint0_linear" x1="10.5" y1="0" x2="10.5" y2="49" gradientUnits="userSpaceOnUse"><stop stop-color="#B5212E"/><stop offset="1" stop-color="#051223"/></linearGradient><linearGradient id="paint1_linear" x1="10.5" y1="0" x2="10.5" y2="49" gradientUnits="userSpaceOnUse"><stop stop-color="#B5212E"/><stop offset="1" stop-color="#051223"/></linearGradient><linearGradient id="paint2_linear" x1="10.5" y1="0" x2="10.5" y2="49" gradientUnits="userSpaceOnUse"><stop stop-color="#B5212E"/><stop offset="1" stop-color="#051223"/></linearGradient><linearGradient id="paint3_linear" x1="10.5" y1="0" x2="10.5" y2="49" gradientUnits="userSpaceOnUse"><stop stop-color="#B5212E"/><stop offset="1" stop-color="#051223"/></linearGradient><linearGradient id="paint4_linear" x1="10.5" y1="0" x2="10.5" y2="49" gradientUnits="userSpaceOnUse"><stop stop-color="#B5212E"/><stop offset="1" stop-color="#051223"/></linearGradient><linearGradient id="paint5_linear" x1="10.5" y1="0" x2="10.5" y2="49" gradientUnits="userSpaceOnUse"><stop stop-color="#B5212E"/><stop offset="1" stop-color="#051223"/></linearGradient><linearGradient id="paint6_linear" x1="10.5" y1="0" x2="10.5" y2="49" gradientUnits="userSpaceOnUse"><stop stop-color="#B5212E"/><stop offset="1" stop-color="#051223"/></linearGradient><linearGradient id="paint7_linear" x1="10.5" y1="0" x2="10.5" y2="49" gradientUnits="userSpaceOnUse"><stop stop-color="#B5212E"/><stop offset="1" stop-color="#051223"/></linearGradient><linearGradient id="paint8_linear" x1="10.5" y1="0" x2="10.5" y2="49" gradientUnits="userSpaceOnUse"><stop stop-color="#B5212E"/><stop offset="1" stop-color="#051223"/></linearGradient><linearGradient id="paint9_linear" x1="10.5" y1="0" x2="10.5" y2="49" gradientUnits="userSpaceOnUse"><stop stop-color="#B5212E"/><stop offset="1" stop-color="#051223"/></linearGradient><linearGradient id="paint10_linear" x1="10.5" y1="0" x2="10.5" y2="49" gradientUnits="userSpaceOnUse"><stop stop-color="#B5212E"/><stop offset="1" stop-color="#051223"/></linearGradient><linearGradient id="paint11_linear" x1="10.5" y1="0" x2="10.5" y2="49" gradientUnits="userSpaceOnUse"><stop stop-color="#B5212E"/><stop offset="1" stop-color="#051223"/></linearGradient><linearGradient id="paint12_linear" x1="10.5" y1="0" x2="10.5" y2="49" gradientUnits="userSpaceOnUse"><stop stop-color="#B5212E"/><stop offset="1" stop-color="#051223"/></linearGradient></defs></svg>
